src/assets/Imgs/profile/name.svg

<svg fill="none" height="16" viewBox="0 0 16 16" width="16" xmlns="http://www.w3.org/2000/svg"><g fill="#0085ff"><path d="m8 1c-1.65474 0-3 1.34668-3 3.00316 0 1.62487 1.26947 2.93994 2.92421 2.99684.05053-.00632.10105-.00632.13895 0h.03158.01263c1.61684-.0569 2.88633-1.37197 2.89263-2.99684 0-1.65648-1.34526-3.00316-3-3.00316z"/><path d="m12.3295 9.05625c-2.3778-1.40833-6.25564-1.40833-8.65052 0-1.08239.64359-1.67898 1.51435-1.67898 2.44565s.59659 1.7945 1.67045 2.4305c1.19319.7117 2.76137 1.0676 4.32955 1.0676s3.1364-.3559 4.3295-1.0676c1.0739-.6436 1.6705-1.5068 1.6705-2.4456-.0085-.9314-.5966-1.79453-1.6705-2.43055z"/></g></svg>

<svg width="16" height="16" viewBox="0 0 16 16" fill="none" xmlns="http://www.w3.org/2000/svg">
<g id="frame">
<path id="Vector" d="M8 1C6.34526 1 5 2.34668 5 4.00316C5 5.62803 6.26947 6.9431 7.92421 7C7.97474 6.99368 8.02526 6.99368 8.06316 7C8.07579 7 8.0821 7 8.09474 7C8.10105 7 8.10105 7 8.10737 7C9.72421 6.9431 10.9937 5.62803 11 4.00316C11 2.34668 9.65474 1 8 1Z" fill="#0085FF"/>
<path id="Vector_2" d="M12.3295 9.05625C9.9517 7.64792 6.07386 7.64792 3.67898 9.05625C2.59659 9.69984 2 10.5706 2 11.5019C2 12.4332 2.59659 13.2964 3.67045 13.9324C4.86364 14.6441 6.43182 15 8 15C9.56818 15 11.1364 14.6441 12.3295 13.9324C13.4034 13.2888 14 12.4256 14 11.4868C13.9915 10.5554 13.4034 9.69227 12.3295 9.05625Z" fill="#0085FF"/>
</g>
</svg>
